contributed-vectors/trust.svg

<svg xmlns="http://www.w3.org/2000/svg" width="192" height="192" fill="none"><g clip-path="url(#a)"><g clip-path="url(#b)"><path fill="#728DBE" d="M96.1 172c-1.6 0-3.2-.5-4.6-1.5-8.5-6.1-15.8-10.1-22.2-13.6C40.6 141.4 32.3 133 31 45.1c0-2.1.8-4.1 2.3-5.6 1.5-1.5 3.5-2.3 5.6-2.3h1.3c8.5.1 31.1.2 50.9-16.3 2.9-2.4 7.2-2.4 10.1 0 19.8 16.6 42.5 16.4 51 16.3h1.3c2.1 0 4.1.8 5.6 2.3 1.5 1.5 2.3 3.5 2.3 5.6C160 133 151.7 141.4 123 157c-6.4 3.5-13.7 7.4-22.3 13.6-1.4.9-3 1.4-4.6 1.4ZM46.8 52.8c1.6 75 8.5 78.7 30 90.4 5.4 2.9 11.9 6.5 19.3 11.4 7.4-5 13.9-8.5 19.4-11.4 21.5-11.6 28.4-15.4 30-90.4-11.4-.4-30.9-2.9-49.4-16-18.4 13.1-37.9 15.6-49.3 16Z"/></g></g><defs><clipPath id="a"><path fill="#fff" d="M0 0h192v192H0z"/></clipPath><clipPath id="b"><path fill="#fff" d="M31 19h130.3v153H31z"/></clipPath></defs></svg>

<svg width="192" height="192" viewBox="0 0 192 192" fill="none" xmlns="http://www.w3.org/2000/svg">
<g clip-path="url(#clip0)">
<g clip-path="url(#clip1)">
<path d="M96.1 172C94.5 172 92.9 171.5 91.5 170.5C83 164.4 75.7 160.4 69.3 156.9C40.6 141.4 32.3 133 31 45.1C31 43 31.8 41 33.3 39.5C34.8 38 36.8 37.2 38.9 37.2H40.2C48.7 37.3 71.3 37.4 91.1 20.9C94 18.5 98.3 18.5 101.2 20.9C121 37.5 143.7 37.3 152.2 37.2H153.5C155.6 37.2 157.6 38 159.1 39.5C160.6 41 161.4 43 161.4 45.1C160 133 151.7 141.4 123 157C116.6 160.5 109.3 164.4 100.7 170.6C99.3 171.5 97.7 172 96.1 172ZM46.8 52.8C48.4 127.8 55.3 131.5 76.8 143.2C82.2 146.1 88.7 149.7 96.1 154.6C103.5 149.6 110 146.1 115.5 143.2C137 131.6 143.9 127.8 145.5 52.8C134.1 52.4 114.6 49.9 96.1 36.8C77.7 49.9 58.2 52.4 46.8 52.8Z" fill="#728DBE"/>
</g>
</g>
<defs>
<clipPath id="clip0">
<rect width="192" height="192" fill="white"/>
</clipPath>
<clipPath id="clip1">
<rect width="130.3" height="153" fill="white" transform="translate(31 19)"/>
</clipPath>
</defs>
</svg>
